assets/images/site-logo.svg

<svg width="127" height="23" viewBox="0 0 127 23" fill="none" xmlns="http://www.w3.org/2000/svg">
<path d="M10.82 22.42C8.69 22.42 6.815 21.97 5.195 21.07C3.575 20.16 2.31 18.89 1.4 17.26C0.5 15.62 0.05 13.7 0.05 11.5C0.05 9.3 0.515 7.385 1.445 5.755C2.385 4.115 3.675 2.845 5.315 1.945C6.955 1.035 8.83 0.579999 10.94 0.579999C12.05 0.579999 13.065 0.699999 13.985 0.939999C14.905 1.17 15.7 1.46 16.37 1.81L15.95 5.47C15.19 5.12 14.405 4.835 13.595 4.615C12.795 4.385 11.9 4.27 10.91 4.27C9.44 4.27 8.21 4.58 7.22 5.2C6.24 5.82 5.5 6.675 5 7.765C4.5 8.855 4.25 10.1 4.25 11.5C4.25 12.9 4.495 14.145 4.985 15.235C5.475 16.325 6.205 17.18 7.175 17.8C8.155 18.42 9.37 18.73 10.82 18.73C11.83 18.73 12.735 18.62 13.535 18.4C14.335 18.18 15.14 17.89 15.95 17.53L16.37 21.19C15.58 21.56 14.71 21.855 13.76 22.075C12.82 22.305 11.84 22.42 10.82 22.42ZM30.8176 22.42C28.8176 22.42 27.0376 21.97 25.4776 21.07C23.9176 20.16 22.6926 18.89 21.8026 17.26C20.9126 15.62 20.4676 13.7 20.4676 11.5C20.4676 9.3 20.9126 7.385 21.8026 5.755C22.6926 4.115 23.9176 2.845 25.4776 1.945C27.0376 1.035 28.8176 0.579999 30.8176 0.579999C32.8176 0.579999 34.5976 1.035 36.1576 1.945C37.7176 2.845 38.9426 4.115 39.8326 5.755C40.7226 7.385 41.1676 9.3 41.1676 11.5C41.1676 13.7 40.7226 15.62 39.8326 17.26C38.9426 18.89 37.7176 20.16 36.1576 21.07C34.5976 21.97 32.8176 22.42 30.8176 22.42ZM30.8176 18.7C32.2176 18.7 33.3876 18.39 34.3276 17.77C35.2676 17.15 35.9726 16.3 36.4426 15.22C36.9126 14.13 37.1476 12.89 37.1476 11.5C37.1476 10.11 36.9126 8.875 36.4426 7.795C35.9726 6.705 35.2676 5.85 34.3276 5.23C33.3876 4.61 32.2176 4.3 30.8176 4.3C29.4176 4.3 28.2476 4.61 27.3076 5.23C26.3676 5.85 25.6626 6.705 25.1926 7.795C24.7226 8.875 24.4876 10.11 24.4876 11.5C24.4876 12.89 24.7226 14.13 25.1926 15.22C25.6626 16.3 26.3676 17.15 27.3076 17.77C28.2476 18.39 29.4176 18.7 30.8176 18.7ZM46.9205 22V0.999999H54.7805C56.7805 0.999999 58.5605 1.42 60.1205 2.26C61.6805 3.09 62.9055 4.29 63.7955 5.86C64.6855 7.42 65.1305 9.3 65.1305 11.5C65.1305 13.7 64.6855 15.585 63.7955 17.155C62.9055 18.715 61.6805 19.915 60.1205 20.755C58.5605 21.585 56.7805 22 54.7805 22H46.9205ZM50.7605 18.58H54.7805C56.1405 18.58 57.2755 18.295 58.1855 17.725C59.0955 17.155 59.7805 16.34 60.2405 15.28C60.7005 14.22 60.9305 12.96 60.9305 11.5C60.9305 10.04 60.7005 8.78 60.2405 7.72C59.7805 6.66 59.0955 5.845 58.1855 5.275C57.2755 4.705 56.1405 4.42 54.7805 4.42H50.7605V18.58ZM70.9123 22V0.999999H74.7523V22H70.9123ZM90.2391 22.42C88.2691 22.42 86.6391 22.03 85.3491 21.25C84.0691 20.47 83.1141 19.375 82.4841 17.965C81.8541 16.555 81.5391 14.9 81.5391 13V0.999999H85.3791V12.01C85.3791 13.01 85.4441 13.925 85.5741 14.755C85.7041 15.575 85.9391 16.285 86.2791 16.885C86.6291 17.475 87.1241 17.93 87.7641 18.25C88.4041 18.57 89.2291 18.73 90.2391 18.73C91.2491 18.73 92.0741 18.57 92.7141 18.25C93.3541 17.93 93.8441 17.475 94.1841 16.885C94.5341 16.285 94.7741 15.575 94.9041 14.755C95.0341 13.925 95.0991 13.01 95.0991 12.01V0.999999H98.9391V13C98.9391 14.9 98.6241 16.555 97.9941 17.965C97.3641 19.375 96.4041 20.47 95.1141 21.25C93.8341 22.03 92.2091 22.42 90.2391 22.42ZM104.459 22L107.369 0.999999H110.519L115.649 10.57L120.749 0.999999H123.899L126.809 22H122.819L120.809 6.22L121.859 6.43L115.649 17.59L109.409 6.46L110.459 6.25L108.449 22H104.459Z" fill="#333333"/>
</svg>

<svg width="127" height="23" fill="none" xmlns="http://www.w3.org/2000/svg"><path d="M10.82 22.42c-2.13 0-4.005-.45-5.625-1.35A9.723 9.723 0 0 1 1.4 17.26C.5 15.62.05 13.7.05 11.5c0-2.2.465-4.115 1.395-5.745a9.844 9.844 0 0 1 3.87-3.81C6.955 1.035 8.83.58 10.94.58c1.11 0 2.125.12 3.045.36.92.23 1.715.52 2.385.87l-.42 3.66c-.76-.35-1.545-.635-2.355-.855-.8-.23-1.695-.345-2.685-.345-1.47 0-2.7.31-3.69.93C6.24 5.82 5.5 6.675 5 7.765c-.5 1.09-.75 2.335-.75 3.735s.245 2.645.735 3.735c.49 1.09 1.22 1.945 2.19 2.565.98.62 2.195.93 3.645.93 1.01 0 1.915-.11 2.715-.33.8-.22 1.605-.51 2.415-.87l.42 3.66c-.79.37-1.66.665-2.61.885-.94.23-1.92.345-2.94.345Zm19.998 0c-2 0-3.78-.45-5.34-1.35-1.56-.91-2.785-2.18-3.675-3.81-.89-1.64-1.335-3.56-1.335-5.76 0-2.2.445-4.115 1.335-5.745.89-1.64 2.115-2.91 3.675-3.81 1.56-.91 3.34-1.365 5.34-1.365s3.78.455 5.34 1.365c1.56.9 2.785 2.17 3.675 3.81.89 1.63 1.335 3.545 1.335 5.745s-.445 4.12-1.335 5.76c-.89 1.63-2.115 2.9-3.675 3.81-1.56.9-3.34 1.35-5.34 1.35Zm0-3.72c1.4 0 2.57-.31 3.51-.93.94-.62 1.645-1.47 2.115-2.55.47-1.09.705-2.33.705-3.72 0-1.39-.235-2.625-.705-3.705-.47-1.09-1.175-1.945-2.115-2.565-.94-.62-2.11-.93-3.51-.93s-2.57.31-3.51.93c-.94.62-1.645 1.475-2.115 2.565-.47 1.08-.705 2.315-.705 3.705 0 1.39.235 2.63.705 3.72.47 1.08 1.175 1.93 2.115 2.55.94.62 2.11.93 3.51.93ZM46.92 22V1h7.86c2 0 3.78.42 5.34 1.26 1.56.83 2.786 2.03 3.675 3.6.89 1.56 1.335 3.44 1.335 5.64 0 2.2-.444 4.085-1.334 5.655a9.157 9.157 0 0 1-3.675 3.6c-1.56.83-3.34 1.245-5.34 1.245h-7.86Zm3.84-3.42h4.02c1.36 0 2.495-.285 3.405-.855.91-.57 1.596-1.385 2.055-2.445.46-1.06.69-2.32.69-3.78s-.23-2.72-.69-3.78c-.46-1.06-1.145-1.875-2.055-2.445-.91-.57-2.044-.855-3.404-.855h-4.02v14.16ZM70.912 22V1h3.84v21h-3.84Zm19.327.42c-1.97 0-3.6-.39-4.89-1.17-1.28-.78-2.235-1.875-2.865-3.285-.63-1.41-.945-3.065-.945-4.965V1h3.84v11.01c0 1 .065 1.915.195 2.745.13.82.365 1.53.705 2.13.35.59.845 1.045 1.485 1.365.64.32 1.465.48 2.475.48s1.835-.16 2.475-.48c.64-.32 1.13-.775 1.47-1.365.35-.6.59-1.31.72-2.13.13-.83.195-1.745.195-2.745V1h3.84v12c0 1.9-.315 3.555-.945 4.965-.63 1.41-1.59 2.505-2.88 3.285-1.28.78-2.905 1.17-4.875 1.17Zm14.22-.42 2.91-21h3.15l5.13 9.57 5.1-9.57h3.15l2.91 21h-3.99l-2.01-15.78 1.05.21-6.21 11.16-6.24-11.13 1.05-.21-2.01 15.75h-3.99Z" fill="#333"/></svg>
